public/assets/images/four.svg

<svg width="32" height="40" viewBox="0 0 32 40" fill="none" xmlns="http://www.w3.org/2000/svg">
<path d="M1.8 20.76L8.16 1.56C8.36 0.919998 8.6 0.499997 8.88 0.299998C9.16 0.0999978 9.64 -2.14577e-06 10.32 -2.14577e-06H10.56C11.24 -2.14577e-06 11.64 0.0999978 11.76 0.299998C11.92 0.499997 11.9 0.919998 11.7 1.56L4.8 22.32C4.28 23.96 4.28 25.14 4.8 25.86C5.36 26.58 6.52 26.94 8.28 26.94H20.58V11.04C20.58 10.48 20.68 10.1 20.88 9.9C21.08 9.7 21.46 9.6 22.02 9.6H22.5C23.06 9.6 23.44 9.7 23.64 9.9C23.84 10.1 23.94 10.48 23.94 11.04V37.56C23.94 38.12 23.84 38.5 23.64 38.7C23.44 38.9 23.06 39 22.5 39H22.02C21.46 39 21.08 38.9 20.88 38.7C20.68 38.5 20.58 38.12 20.58 37.56V30.06H8.64C5.24 30.06 2.98 29.32 1.86 27.84C0.74 26.36 0.72 24 1.8 20.76ZM26.2552 36.78C26.1352 35.7 26.5352 34.94 27.4552 34.5C28.3752 34.06 29.2952 34.06 30.2152 34.5C31.1352 34.94 31.5352 35.7 31.4152 36.78C31.4152 37.5 31.1552 38.12 30.6352 38.64C30.1552 39.12 29.5552 39.36 28.8352 39.36C28.1152 39.36 27.4952 39.12 26.9752 38.64C26.4952 38.12 26.2552 37.5 26.2552 36.78Z" fill="url(#paint0_radial_169_2106)"/>
<defs>
<radialGradient id="paint0_radial_169_2106" cx="0" cy="0" r="1" gradientUnits="userSpaceOnUse" gradientTransform="translate(46.2014 47.0908) rotate(-138.382) scale(50.3601 47.3804)">
<stop stop-color="#C6B38A"/>
<stop offset="0.463601" stop-color="#F3C691"/>
<stop offset="1" stop-color="#B4703E"/>
</radialGradient>
</defs>
</svg>

<svg xmlns="http://www.w3.org/2000/svg" width="32" height="40" fill="none" xmlns:v="https://vecta.io/nano"><path d="M1.8 20.76l6.36-19.2C8.36.92 8.6.5 8.88.3s.76-.3 1.44-.3h.24c.68 0 1.08.1 1.2.3.16.2.14.62-.06 1.26L4.8 22.32c-.52 1.64-.52 2.82 0 3.54.56.72 1.72 1.08 3.48 1.08h12.3v-15.9c0-.56.1-.94.3-1.14s.58-.3 1.14-.3h.48c.56 0 .94.1 1.14.3s.3.58.3 1.14v26.52c0 .56-.1.94-.3 1.14s-.58.3-1.14.3h-.48c-.56 0-.94-.1-1.14-.3s-.3-.58-.3-1.14v-7.5H8.64c-3.4 0-5.66-.74-6.78-2.22S.72 24 1.8 20.76zm24.455 16.02c-.12-1.08.28-1.84 1.2-2.28s1.84-.44 2.76 0 1.32 1.2 1.2 2.28c0 .72-.26 1.34-.78 1.86-.48.48-1.08.72-1.8.72s-1.34-.24-1.86-.72c-.48-.52-.72-1.14-.72-1.86z" fill="url(#A)"/><defs><radialGradient id="A" cx="0" cy="0" r="1" gradientUnits="userSpaceOnUse" gradientTransform="translate(46.2014 47.0908) rotate(-138.382) scale(50.3601 47.3804)"><stop stop-color="#c6b38a"/><stop offset=".464" stop-color="#f3c691"/><stop offset="1" stop-color="#b4703e"/></radialGradient></defs></svg>
